X:46041
T: Barbara's Strathspey
C: Mady Newfield
R: strathspey
Z: 2010 John Chambers <jc:trillian.mit.edu>
B: RSCDS 46-4
M: C
L: 1/16
%--------------------
K: G
E3F \
| "Em"G3F G3e "G"d3B G3B | "D"A3F D3F A4 B3A \
| "e/C"G3A G3E "Am"AG3 FE3 | "B"B4 B,4 "d#/B"[B4F4] "Em"[G3E4]A |
| "G"B3G B,3B "D"A4 "Bm"B3F | "Em"G3A B3G "Am"c4 B3A \
| "b/G"B3G d3B "D"A4 F3D | "C"EG3 "D7"G3A "G"G4 G3A |]
[| "G"B3G D3B "D"[A4F4] "d#/B"B3F | "Em"G3E B,3G "B"[F4B,4] "Em"[G3B,4]F \
| "C"EG3 G3E "b/G"D3G Bd3 | "Am"d3c B3c "D7"A4 G3A |
| "G"B3G d3B "f#/D"A4 G3F | "Em"G3F E3A "C"G4 F3E \
| "b/G"D3B d3B "D"A4 "Bm"F3D | "Am"EG3 "D7"G3A "G"[G4B,4] |]
